X:1
T:Fremantle doctor
C:Ed ten Hoedt
M:6/8
K:G
z3DGB|dBd edc|B3Bcd|c2BA3|
z3DF#G|A3ABc|e2dc2A|B4z2|
z3DGA|BGB dBd|g3gfe|f2dA3|
z3AAB|c3ecB|ADF cBA|G3z3|
z3BAG|"Em"EFG ABd|"C"e3gfe|"D"f2dA3|
z3AAB|"Am"c3ecB|"D"A3ABc|"G"B4z2|
z3BAG|"Em"EFG ABd|"C"ece gfe|"D"fdf afe|
d3AAB|"Am"A3eAG|"D"ADF cBA|"G"G4z2|]
